src/raw/hiking/icon_24.svg

<svg width="24" height="24" viewBox="0 0 24 24" fill="none" xmlns="http://www.w3.org/2000/svg">
<path d="M5.35221 0.906238C5.58762 1.02302 5.78822 1.19959 5.93392 1.41827L7.18091 3.29225L8.28089 2.23926C8.44898 2.07168 8.65443 1.94638 8.88036 1.87366C9.1063 1.80093 9.34627 1.78286 9.58054 1.82093C9.81482 1.859 10.0367 1.95213 10.228 2.09265C10.4193 2.23317 10.5745 2.41708 10.6809 2.62926L12.7498 6.76721H0.74999L3.34396 1.57927C3.46146 1.34422 3.63864 1.14417 3.85778 0.999136C4.07691 0.854103 4.3303 0.769184 4.59257 0.752881C4.85485 0.736577 5.1168 0.789461 5.35221 0.906238Z" stroke="#71717A" stroke-width="1.5" stroke-linecap="round" stroke-linejoin="round"/>
<path d="M20.2497 3.00027L17.2498 11.2502H23.2497L20.2497 3.00027Z" stroke="#71717A" stroke-width="1.5" stroke-linecap="round" stroke-linejoin="round"/>
<path d="M20.2497 11.2502V14.2501" stroke="#71717A" stroke-width="1.5" stroke-linecap="round" stroke-linejoin="round"/>
<path d="M3.74995 12.0002L0.74999 20.25H6.74991L3.74995 12.0002Z" stroke="#71717A" stroke-width="1.5" stroke-linecap="round" stroke-linejoin="round"/>
<path d="M3.74995 20.25V23.25" stroke="#71717A" stroke-width="1.5" stroke-linecap="round" stroke-linejoin="round"/>
<path d="M19.4998 19.7001C20.0909 20.2664 20.5279 20.974 20.7697 21.756" stroke="#71717A" stroke-width="1.5" stroke-linecap="round" stroke-linejoin="round"/>
<path d="M14.9998 17.8481C15.2398 17.9061 15.4888 17.9571 15.7488 18.0001C16.2608 18.083 16.7649 18.2088 17.2558 18.3761" stroke="#71717A" stroke-width="1.5" stroke-linecap="round" stroke-linejoin="round"/>
<path d="M10.7001 14.6671C11.0231 15.3102 11.4641 15.8868 12 16.3671" stroke="#71717A" stroke-width="1.5" stroke-linecap="round" stroke-linejoin="round"/>
<path d="M9.74996 9.75018C9.74805 10.3346 9.77709 10.9188 9.83696 11.5002" stroke="#71717A" stroke-width="1.5" stroke-linecap="round" stroke-linejoin="round"/>
</svg>

<svg xmlns="http://www.w3.org/2000/svg" width="24" height="24" fill="none" viewBox="0 0 24 24">
  <path stroke="#3F3F46" stroke-linecap="round" stroke-linejoin="round" stroke-width="1.5"
    d="M5.352.906a1.5 1.5 0 0 1 .582.512L7.125 3l1.156-.76c.215-.148.374-.294.6-.367a1.5 1.5 0 0 1 1.8.756l2.069 4.138h-12l2.594-5.188A1.5 1.5 0 0 1 5.352.906ZM20.25 3l-3 8.25h6l-3-8.25ZM20.25 11.25v3M3.75 12l-3 8.25h6l-3-8.25ZM3.75 20.25v3M19.5 19.7a4.818 4.818 0 0 1 1.27 2.056M15 17.848c.24.058.489.11.749.152a9.27 9.27 0 0 1 1.507.376M10.7 14.667c.323.643.764 1.22 1.3 1.7M9.75 9.75c-.002.585.027 1.169.087 1.75" />
</svg>
